build/img/card/stars.svg

<svg width="18.000000" height="17.368164" viewBox="0 0 18 17.3682" fill="none" xmlns="http://www.w3.org/2000/svg" xmlns:xlink="http://www.w3.org/1999/xlink">
	<desc>
			Created with Pixso.
	</desc>
	<defs/>
	<rect id="Icons/Star" width="18.000000" height="17.368408" fill="#FFFFFF" fill-opacity="0"/>
	<rect id="Icons/Star" width="18.000000" height="17.368408" fill="#FFFFFF" fill-opacity="0"/>
	<rect id="Icons/Star" width="18.000000" height="17.368408" fill="#FFFFFF" fill-opacity="0"/>
	<rect id="Icons/Star" width="18.000000" height="17.368408" fill="#FFFFFF" fill-opacity="0"/>
	<rect id="Icons/Star" width="18.000000" height="17.368408" fill="#FFFFFF" fill-opacity="0"/>
	<path id="Shape" d="M9 13.2446L12.9106 12.2344L14.5444 17.3682L9 13.2446ZM18 6.60889L11.1162 6.60889L9 0L6.88379 6.60889L0 6.60889L5.57129 10.7051L3.45557 17.314L9.02686 13.2173L12.4556 10.7051L18 6.60889Z" fill="#FFB400" fill-opacity="1.000000" fill-rule="nonzero"/>
</svg>

<svg width="18" height="17.368" fill="none" xmlns="http://www.w3.org/2000/svg"><path d="M0 0h18v17.368H0z"/><path d="M0 0h18v17.368H0z"/><path d="M0 0h18v17.368H0z"/><path d="M0 0h18v17.368H0z"/><path d="M0 0h18v17.368H0z"/><path d="M9 13.245l3.91-1.01 1.634 5.133L9 13.245zm9-6.636h-6.884L9 0 6.884 6.609H0l5.571 4.096-2.115 6.609 5.57-4.097 3.43-2.512L18 6.61z" fill="#FFB400"/></svg>
